symbols/web/sim_card_download/materialsymbolsrounded/sim_card_download_wght700grad200fill1_24px.svg

<svg xmlns="http://www.w3.org/2000/svg" height="24" width="24"><path d="M6.25 23.15q-1.4 0-2.4-.987-1-.988-1-2.413V8.925q0-.675.275-1.313.275-.637.75-1.087l4.65-4.675Q9 1.375 9.637 1.112 10.275.85 10.95.85h6.8q1.4 0 2.4.987 1 .988 1 2.413v15.5q0 1.425-1 2.413-1 .987-2.4.987Zm5.75-6.3q.325 0 .638-.125.312-.125.562-.375l2.5-2.5q.375-.4.375-.95 0-.55-.4-.975-.425-.4-.987-.4-.563 0-.963.4l-.3.3V9.65q0-.575-.425-.988-.425-.412-1-.412t-1 .412q-.425.413-.425.988v2.575l-.3-.325q-.4-.375-.963-.375-.562 0-.987.4-.4.425-.4.987 0 .563.4.963l2.5 2.475q.25.25.55.375.3.125.625.125Z"/></svg>

<svg xmlns="http://www.w3.org/2000/svg" height="24" width="24"><path d="M6.25 23.15Q4.85 23.15 3.85 22.163Q2.85 21.175 2.85 19.75V8.925Q2.85 8.25 3.125 7.612Q3.4 6.975 3.875 6.525L8.525 1.85Q9 1.375 9.637 1.112Q10.275 0.85 10.95 0.85H17.75Q19.15 0.85 20.15 1.837Q21.15 2.825 21.15 4.25V19.75Q21.15 21.175 20.15 22.163Q19.15 23.15 17.75 23.15ZM12 16.85Q12.325 16.85 12.638 16.725Q12.95 16.6 13.2 16.35L15.7 13.85Q16.075 13.45 16.075 12.9Q16.075 12.35 15.675 11.925Q15.25 11.525 14.688 11.525Q14.125 11.525 13.725 11.925L13.425 12.225V9.65Q13.425 9.075 13 8.662Q12.575 8.25 12 8.25Q11.425 8.25 11 8.662Q10.575 9.075 10.575 9.65V12.225L10.275 11.9Q9.875 11.525 9.312 11.525Q8.75 11.525 8.325 11.925Q7.925 12.35 7.925 12.912Q7.925 13.475 8.325 13.875L10.825 16.35Q11.075 16.6 11.375 16.725Q11.675 16.85 12 16.85Z"/></svg>
